X:369
T:Glen Tilt Lodge
R:Reel
O:Scotland
S:Kerr's Fourth
B:Kerr's Fourth
Z:Transcription, chords:Mike Long
M:C|
L:1/8
K:A
B|\
"A"Aaae "(F#m)"feae|"D"faac "E"BcdB|\
"A"Aaae "(F#m)"feae|"D"(f/g/a) ec "E"(B2 A):|\
B|\
"A"cAAe ~A2 e2|
"D"dfec "E"BcdB|\
"A"cAAe ~A2 e2|"D"dfec "E"(B2 A)B|\
"A"cAAe ~A2 e2|"D"dfec "E"BcdB|\
"A"caga "F#m"faea|"D"dbca "E"(B2 A)|]
